src/svg/qzone3.svg

<svg xmlns="http://www.w3.org/2000/svg" width="1000" height="1000" viewBox="0 0 1000 1000"><path fill-rule="evenodd" clip-rule="evenodd" fill="#020202" d="M706.819 625.108l83.011 249.124-290.731-124.504-290.619 124.504 83.011-249.124-166.112-207.606 207.606-41.608 166.113-249.123 166.112 249.123 207.606 41.608-165.997 207.606zm-117.753-190.68l-89.968-183.039-96.698 185.388-152.426 22.219 124.505 128.679-41.494 162.053 165.041-85.36 167.185 85.36-42.224-165.588 125.326-125.144-159.247-24.568zm-89.967 149.186l124.618 41.494h-249.123l124.505-124.596-124.505-41.517h249.123l-124.618 124.619z"/></svg>

<?xml version="1.0" encoding="utf-8"?>
<!-- Generator: Adobe Illustrator 16.0.0, SVG Export Plug-In . SVG Version: 6.00 Build 0)  -->
<!DOCTYPE svg PUBLIC "-//W3C//DTD SVG 1.1//EN" "http://www.w3.org/Graphics/SVG/1.1/DTD/svg11.dtd">
<svg version="1.1" id="Layer_1" xmlns="http://www.w3.org/2000/svg" xmlns:xlink="http://www.w3.org/1999/xlink" x="0px" y="0px"
	 width="1000px" height="1000px" viewBox="0 0 1000 1000" enable-background="new 0 0 1000 1000" xml:space="preserve">
<path fill-rule="evenodd" clip-rule="evenodd" fill="#020202" d="M706.819,625.108l83.011,249.124L499.099,749.728L208.48,874.232
	l83.011-249.124L125.379,417.502l207.606-41.608l166.113-249.123l166.112,249.123l207.606,41.608L706.819,625.108L706.819,625.108z
	 M589.066,434.428l-89.968-183.039L402.4,436.777l-152.426,22.219l124.505,128.679l-41.494,162.053l165.041-85.36l167.185,85.36
	L622.987,584.14l125.326-125.144L589.066,434.428L589.066,434.428z M499.099,583.614l124.618,41.494H374.594l124.505-124.596
	l-124.505-41.517h249.123L499.099,583.614L499.099,583.614z"/>
</svg>
